src/svg/info.svg

<svg height="16" width="14" xmlns="http://www.w3.org/2000/svg" viewBox="0 0 14 16">
  <path d="M6.3 5.69c-0.19-0.19-0.28-0.42-0.28-0.7s0.09-0.52 0.28-0.7 0.42-0.28 0.7-0.28 0.52 0.09 0.7 0.28 0.28 0.42 0.28 0.7-0.09 0.52-0.28 0.7-0.42 0.3-0.7 0.3-0.52-0.11-0.7-0.3z m1.7 2.3c-0.02-0.25-0.11-0.48-0.31-0.69-0.2-0.19-0.42-0.3-0.69-0.31h-1c-0.27 0.02-0.48 0.13-0.69 0.31-0.2 0.2-0.3 0.44-0.31 0.69h1v3c0.02 0.27 0.11 0.5 0.31 0.69 0.2 0.2 0.42 0.31 0.69 0.31h1c0.27 0 0.48-0.11 0.69-0.31 0.2-0.19 0.3-0.42 0.31-0.69h-1V7.98z m-1-5.69C3.86 2.3 1.3 4.84 1.3 7.98s2.56 5.7 5.7 5.7 5.7-2.55 5.7-5.7-2.56-5.69-5.7-5.69m0-1.31c3.86 0 7 3.14 7 7S10.86 14.98 7 14.98 0 11.86 0 7.98 3.14 0.98 7 0.98z" />
</svg>

<?xml version="1.0" encoding="UTF-8" standalone="no"?>
<svg width="14px" height="16px" viewBox="0 0 14 16" version="1.1" xmlns="http://www.w3.org/2000/svg" xmlns:xlink="http://www.w3.org/1999/xlink">
    <!-- Generator: Sketch 3.7.1 (28215) - http://www.bohemiancoding.com/sketch -->
    <title>info</title>
    <desc>Created with Sketch.</desc>
    <defs></defs>
    <g id="Octicons" stroke="none" stroke-width="1" fill="none" fill-rule="evenodd">
        <g id="info" fill="#000000">
            <path d="M6.3,5.69 C6.11,5.5 6.02,5.27 6.02,4.99 C6.02,4.71 6.11,4.47 6.3,4.29 C6.49,4.11 6.72,4.01 7,4.01 C7.28,4.01 7.52,4.1 7.7,4.29 C7.88,4.48 7.98,4.71 7.98,4.99 C7.98,5.27 7.89,5.51 7.7,5.69 C7.51,5.87 7.28,5.99 7,5.99 C6.72,5.99 6.48,5.88 6.3,5.69 L6.3,5.69 Z M8,7.99 C7.98,7.74 7.89,7.51 7.69,7.3 C7.49,7.11 7.27,7 7,6.99 L6,6.99 C5.73,7.01 5.52,7.12 5.31,7.3 C5.11,7.5 5.01,7.74 5,7.99 L6,7.99 L6,10.99 C6.02,11.26 6.11,11.49 6.31,11.68 C6.51,11.88 6.73,11.99 7,11.99 L8,11.99 C8.27,11.99 8.48,11.88 8.69,11.68 C8.89,11.49 8.99,11.26 9,10.99 L8,10.99 L8,7.98 L8,7.99 Z M7,2.3 C3.86,2.3 1.3,4.84 1.3,7.98 C1.3,11.12 3.86,13.68 7,13.68 C10.14,13.68 12.7,11.13 12.7,7.98 C12.7,4.83 10.14,2.29 7,2.29 L7,2.3 Z M7,0.98 C10.86,0.98 14,4.12 14,7.98 C14,11.84 10.86,14.98 7,14.98 C3.14,14.98 0,11.86 0,7.98 C0,4.1 3.14,0.98 7,0.98 L7,0.98 Z" id="Shape"></path>
        </g>
    </g>
</svg>
